img/logo-twitter-20.svg

<svg fill="none" height="32" viewBox="0 0 33 32" width="33" xmlns="http://www.w3.org/2000/svg" xmlns:xlink="http://www.w3.org/1999/xlink"><clipPath id="a"><path d="m.751953 0h32v32h-32z"/></clipPath><g clip-path="url(#a)"><path d="m29.5351 9.45659c.0193.28.0193.56001.0193.84261 0 8.6103-6.5548 18.5406-18.5406 18.5406v-.0051c-3.54067.0051-7.00776-1.0091-9.98841-2.9213.51484.0619 1.03226.0929 1.55097.0942 2.93419.0025 5.78451-.982 8.09294-2.7949-2.78843-.0529-5.23359-1.8709-6.08778-4.5251.97677.1883 1.98323.1496 2.94194-.1123-3.04-.6142-5.2271-3.2852-5.2271-6.3871v-.0826c.9058.5045 1.92.7845 2.95742.8155-2.86323-1.9135-3.74581-5.72257-2.01678-8.70064 3.30839 4.07097 8.1897 6.54584 13.4297 6.80774-.5252-2.26322.1922-4.63483 1.8851-6.2258 2.6246-2.4671 6.7523-2.34065 9.2194.28258 1.4594-.28774 2.8581-.82323 4.1381-1.58194-.4865 1.50839-1.5046 2.78968-2.8646 3.60388 1.2917-.15226 2.5536-.49807 3.742-1.02581-.8749 1.31097-1.9768 2.4529-3.2516 3.37548z" fill="#fff"/></g></svg>

<svg width="33" height="32" viewBox="0 0 33 32" fill="none" xmlns="http://www.w3.org/2000/svg">
<g clip-path="url(#clip0_3470_10854)">
<path d="M29.5351 9.45659C29.5544 9.73659 29.5544 10.0166 29.5544 10.2992C29.5544 18.9095 22.9996 28.8398 11.0138 28.8398V28.8347C7.47313 28.8398 4.00604 27.8256 1.02539 25.9134C1.54023 25.9753 2.05765 26.0063 2.57636 26.0076C5.51055 26.0101 8.36087 25.0256 10.6693 23.2127C7.88087 23.1598 5.43571 21.3418 4.58152 18.6876C5.55829 18.8759 6.56475 18.8372 7.52346 18.5753C4.48346 17.9611 2.29636 15.2901 2.29636 12.1882V12.1056C3.20216 12.6101 4.21636 12.8901 5.25378 12.9211C2.39055 11.0076 1.50797 7.19853 3.237 4.22046C6.54539 8.29143 11.4267 10.7663 16.6667 11.0282C16.1415 8.76498 16.8589 6.39337 18.5518 4.8024C21.1764 2.3353 25.3041 2.46175 27.7712 5.08498C29.2306 4.79724 30.6293 4.26175 31.9093 3.50304C31.4228 5.01143 30.4047 6.29272 29.0447 7.10692C30.3364 6.95466 31.5983 6.60885 32.7867 6.08111C31.9118 7.39208 30.8099 8.53401 29.5351 9.45659Z" fill="white"/>
</g>
<defs>
<clipPath id="clip0_3470_10854">
<rect width="32" height="32" fill="white" transform="translate(0.751953)"/>
</clipPath>
</defs>
</svg>
